Newaita-dark/apps/16/tranquil.svg

<svg height="16pt" viewBox="0 0 16 16" width="16pt" xmlns="http://www.w3.org/2000/svg" xmlns:xlink="http://www.w3.org/1999/xlink"><linearGradient id="a"><stop offset="0" stop-opacity=".313725"/><stop offset=".222222" stop-opacity=".27451"/><stop offset="1" stop-opacity="0"/></linearGradient><radialGradient id="b" cx="450.90894" cy="189.57936" gradientTransform="matrix(.00000009 -.0390662 -.0703192 -.00000005 22.261576 31.797666)" gradientUnits="userSpaceOnUse" r="21.166656" xlink:href="#a"/><radialGradient id="c" cx="450.90894" cy="189.57936" gradientTransform="matrix(-.00000009 .0390662 .0703192 .00000005 -6.38506 -3.763741)" gradientUnits="userSpaceOnUse" r="21.166656" xlink:href="#a"/><radialGradient id="d" cx="450.90894" cy="189.57936" gradientTransform="matrix(-.00000009 -.0390662 .0703192 -.00000005 -6.38506 31.797666)" gradientUnits="userSpaceOnUse" r="21.166656" xlink:href="#a"/><radialGradient id="e" cx="450.90894" cy="189.57936" gradientTransform="matrix(.00000009 .0390662 -.0703192 .00000005 22.261575 -3.763741)" gradientUnits="userSpaceOnUse" r="21.166656" xlink:href="#a"/><linearGradient id="f" gradientTransform="matrix(.00668003 0 0 .031253 6.232693 6.719392)" gradientUnits="userSpaceOnUse" x1="255.32306" x2="255.32304" y1="233.5" y2="254.66666"><stop offset="0" stop-opacity=".27451"/><stop offset="1" stop-opacity="0"/></linearGradient><linearGradient id="g" gradientUnits="userSpaceOnUse" x1="254" x2="254" y1="-168.66667" y2="233.5"><stop offset="0" stop-color="#ba68c8"/><stop offset="1" stop-color="#ab47bc"/></linearGradient><linearGradient id="h" gradientUnits="userSpaceOnUse" x1="7.938262" x2="7.938262" y1="14.0169675" y2="1.44805256249"><stop offset="0" stop-color="#ef9a9a"/><stop offset="1" stop-color="#ffcdd2"/></linearGradient><linearGradient id="i" gradientUnits="userSpaceOnUse" x1="7.9382592" x2="7.9382592" y1="14.01696629816" y2="1.44805531933"><stop offset="0" stop-color="#ec407a"/><stop offset="1" stop-color="#f06292"/></linearGradient><linearGradient id="j" gradientUnits="userSpaceOnUse" x1="7.9382592" x2="7.9382592" y1="14.01696629816" y2="1.44805531933"><stop offset="0" stop-color="#795548"/><stop offset="1" stop-color="#8d6e63"/></linearGradient><path d="m9.097656 14.015625h1.320313v-.660156h-1.320313zm0 0" fill="url(#b)"/><path d="m6.78125 14.015625h-1.324219v.664063h1.324219zm0 0" fill="url(#c)"/><path d="m6.78125 14.015625h-1.324219v-.660156h1.324219zm0 0" fill="url(#d)"/><path d="m9.097656 14.015625h1.320313v.664063h-1.320313zm0 0" fill="url(#e)"/><path d="m6.78125 13.851562h2.316406v.828126h-2.316406zm0 0" fill="url(#f)"/><path d="m253.975747-168.629428c111.114389 0 201.105795 89.991406 201.105795 201.105795 0 110.989401-89.991406 200.980807-201.105795 200.980807-110.989402 0-201.105796-89.991406-201.105796-200.980807 0-111.114389 90.116394-201.105795 201.105796-201.105795zm0 0" fill="url(#g)" stroke="#333" stroke-linecap="round" stroke-width="3" transform="matrix(.031253 0 0 .031253 0 6.719392)"/><path d="m7.9375 4.09375c2.011719 0 3.640625 1.628906 3.640625 3.640625 0 2.007813-1.628906 3.636719-3.640625 3.636719-2.007812 0-3.636719-1.628906-3.636719-3.636719 0-2.011719 1.628907-3.640625 3.636719-3.640625zm0 0" fill="url(#h)"/><path d="m7.9375 4.09375c-2.015625 0-3.636719 1.625-3.636719 3.640625v.121094c.066407-1.957031 1.664063-3.511719 3.636719-3.511719 1.976562 0 3.570312 1.554688 3.636719 3.511719 0-.039063.003906-.082031.003906-.121094 0-2.015625-1.625-3.640625-3.640625-3.640625zm0 0" fill="#fff" fill-opacity=".392157"/><path d="m253.975747-84.012509c64.368853 0 116.488875 52.120023 116.488875 116.488876 0 64.243865-52.120022 116.363888-116.488875 116.363888-64.243865 0-116.363888-52.120023-116.363888-116.363888 0-64.368853 52.120023-116.488876 116.363888-116.488876zm0 0" fill="none" stroke="#212121" stroke-linecap="round" stroke-width="3" transform="matrix(.031253 0 0 .031253 0 6.719392)"/><path d="m4.867188 10.058594 2.078124 2.914062s1.117188.484375 2.210938.925782c2.117188-.410157 3.847656-1.878907 4.625-3.839844zm0 0" fill="url(#i)"/><path d="m4.867188 10.058594.15625.21875h8.667968c.03125-.074219.0625-.144532.089844-.21875zm0 0" fill="#fff" fill-opacity=".392157"/><path d="m588.605216 1216.419286 251.314586 352.407296s135.10521 58.577084 267.376045 111.957814c256.038545-49.601563 465.309902-227.222399 559.316674-464.36511zm0 0" fill="none" stroke="#212121" stroke-width="12.765609" transform="scale(.00826902)"/><path d="m1.941406 5.84375c-.1875.59375-.289062 1.230469-.289062 1.890625 0 3.480469 2.804687 6.28125 6.285156 6.28125 1.542969 0 2.953125-.550781 4.046875-1.464844-.527344-.066406-.949219-.179687-2.15625-.179687-.675781 0-2.460937.601562-3.125-.667969-.515625-1-1.457031-1.804687-2.226563-2.003906-.65625-.167969-.835937-.800781-.886718-1.5625-.0625-.800781-.707032-.824219-1.121094-1.339844-.273438-.359375-.34375-.742187-.527344-.953125zm0 0" fill="url(#j)"/><path d="m7.9375 14.015625c-3.480469 0-6.285156-2.800781-6.285156-6.28125 0-.023437 0-.042969 0-.0625.035156 3.453125 2.824218 6.222656 6.285156 6.222656s6.253906-2.769531 6.285156-6.222656v.0625c0 3.480469-2.804687 6.28125-6.285156 6.28125zm0 0" fill-opacity=".196078"/><path d="m7.9375 1.449219c-3.480469 0-6.285156 2.800781-6.285156 6.285156v.058594c.035156-3.453125 2.824218-6.222657 6.285156-6.222657s6.253906 2.769532 6.285156 6.222657c0-.019531 0-.039063 0-.058594 0-3.484375-2.804687-6.285156-6.285156-6.285156zm0 0" fill="#fff" fill-opacity=".392157"/><path d="m1.941406 5.84375c-.1875.59375-.289062 1.230469-.289062 1.890625 0 .03125 0 .066406.003906.097656.007812-.621093.109375-1.21875.285156-1.785156.183594.210937.253906.59375.527344.953125.414062.515625 1.058594.539062 1.121094 1.339844.050781.761718.230468 1.394531.886718 1.5625.769532.203125 1.710938 1.003906 2.226563 2.007812.664063 1.265625 2.449219.664063 3.125.664063 1.039063 0 1.496094.085937 1.9375.148437.074219-.054687.144531-.113281.21875-.171875-.527344-.066406-.949219-.179687-2.15625-.179687-.675781 0-2.460937.601562-3.125-.667969-.515625-1-1.457031-1.804687-2.226563-2.003906-.65625-.167969-.835937-.800781-.886718-1.5625-.0625-.800781-.707032-.824219-1.121094-1.339844-.273438-.359375-.34375-.742187-.527344-.953125zm0 0" fill="#fff" fill-opacity=".392157"/><path d="m7.9375 1.402344c-3.507812 0-6.332031 2.824218-6.332031 6.332031 0 3.503906 2.824219 6.328125 6.332031 6.328125s6.332031-2.824219 6.332031-6.328125c0-3.507813-2.824219-6.332031-6.332031-6.332031zm0 .09375c3.457031 0 6.238281 2.78125 6.238281 6.238281 0 3.453125-2.78125 6.234375-6.238281 6.234375s-6.238281-2.78125-6.238281-6.234375c0-3.457031 2.78125-6.238281 6.238281-6.238281zm0 0" fill="#212121"/><path d="m1.984375 5.582031c-.105469.339844-.1875.6875-.234375 1.046875.046875-.265625.109375-.53125.191406-.785156.183594.210938.253906.59375.527344.953125.414062.515625 1.058594.539063 1.121094 1.339844.050781.761719.230468 1.394531.886718 1.5625.769532.199219 1.710938 1.003906 2.226563 2.003906.664063 1.269531 2.449219.667969 3.125.667969 1.207031 0 1.628906.113281 2.15625.179687-.007813.003907-.011719.007813-.015625.011719.089844-.070312.179688-.140625.269531-.210938-.539062-.066406-.96875-.183593-2.199219-.183593-.691406 0-2.511718.609375-3.191406-.671875-.527344-1.011719-1.488281-1.820313-2.273437-2.023438-.667969-.167968-.851563-.808594-.90625-1.574218-.066407-.808594-.722657-.832032-1.144531-1.355469-.277344-.359375-.351563-.746094-.539063-.960938zm0 0" fill-opacity=".235294"/><path d="m234.780732 706.704176c-22.675 71.804167-34.957292 148.804689-34.957292 228.639586 0 420.904693 339.180213 759.612509 760.084905 759.612509 186.596357 0 357.131255-66.607813 489.40209-177.148439-63.773438-8.03073-114.792189-21.730209-260.762503-21.730209-81.724481 0-297.609379 72.748959-377.916672-80.779689-62.356251-120.933334-176.203648-218.246877-269.265628-242.339065-79.362501-20.313021-101.09271-96.841147-107.233856-188.958336-7.558333-96.841147-85.503647-99.675522-135.577606-162.031773-33.067708-43.460417-41.570833-89.755209-63.773438-115.264584zm0 0" fill="none" stroke="#212121" stroke-width="12.765609" transform="scale(.00826902)"/><path d="m4.992188 9.875c.054687.074219.113281.148438.171874.21875h5.546876c.058593-.070312.117187-.144531.171874-.21875zm0 0" fill-opacity=".235294"/></svg>

<?xml version="1.0" encoding="UTF-8"?>
<svg xmlns="http://www.w3.org/2000/svg" xmlns:xlink="http://www.w3.org/1999/xlink" width="16pt" height="16pt" viewBox="0 0 16 16" version="1.1">
<defs>
<radialGradient id="radial0" gradientUnits="userSpaceOnUse" cx="450.90894" cy="189.57936" fx="450.90894" fy="189.57936" r="21.166656" gradientTransform="matrix(0.0000000870852,-0.0390662,-0.0703192,-0.0000000507693,22.261576,31.797666)">
<stop offset="0" style="stop-color:rgb(0%,0%,0%);stop-opacity:0.313725;"/>
<stop offset="0.222222" style="stop-color:rgb(0%,0%,0%);stop-opacity:0.27451;"/>
<stop offset="1" style="stop-color:rgb(0%,0%,0%);stop-opacity:0;"/>
</radialGradient>
<radialGradient id="radial1" gradientUnits="userSpaceOnUse" cx="450.90894" cy="189.57936" fx="450.90894" fy="189.57936" r="21.166656" gradientTransform="matrix(-0.0000000870852,0.0390662,0.0703192,0.0000000507693,-6.38506,-3.763741)">
<stop offset="0" style="stop-color:rgb(0%,0%,0%);stop-opacity:0.313725;"/>
<stop offset="0.222222" style="stop-color:rgb(0%,0%,0%);stop-opacity:0.27451;"/>
<stop offset="1" style="stop-color:rgb(0%,0%,0%);stop-opacity:0;"/>
</radialGradient>
<radialGradient id="radial2" gradientUnits="userSpaceOnUse" cx="450.90894" cy="189.57936" fx="450.90894" fy="189.57936" r="21.166656" gradientTransform="matrix(-0.0000000870852,-0.0390662,0.0703192,-0.0000000507693,-6.38506,31.797666)">
<stop offset="0" style="stop-color:rgb(0%,0%,0%);stop-opacity:0.313725;"/>
<stop offset="0.222222" style="stop-color:rgb(0%,0%,0%);stop-opacity:0.27451;"/>
<stop offset="1" style="stop-color:rgb(0%,0%,0%);stop-opacity:0;"/>
</radialGradient>
<radialGradient id="radial3" gradientUnits="userSpaceOnUse" cx="450.90894" cy="189.57936" fx="450.90894" fy="189.57936" r="21.166656" gradientTransform="matrix(0.0000000870852,0.0390662,-0.0703192,0.0000000507693,22.261575,-3.763741)">
<stop offset="0" style="stop-color:rgb(0%,0%,0%);stop-opacity:0.313725;"/>
<stop offset="0.222222" style="stop-color:rgb(0%,0%,0%);stop-opacity:0.27451;"/>
<stop offset="1" style="stop-color:rgb(0%,0%,0%);stop-opacity:0;"/>
</radialGradient>
<linearGradient id="linear0" gradientUnits="userSpaceOnUse" x1="255.32306" y1="233.5" x2="255.32304" y2="254.66666" gradientTransform="matrix(0.00668003,0,0,0.031253,6.232693,6.719392)">
<stop offset="0" style="stop-color:rgb(0%,0%,0%);stop-opacity:0.27451;"/>
<stop offset="1" style="stop-color:rgb(0%,0%,0%);stop-opacity:0;"/>
</linearGradient>
<linearGradient id="linear1" gradientUnits="userSpaceOnUse" x1="254" y1="-168.66667" x2="254" y2="233.5" >
<stop offset="0" style="stop-color:rgb(72.941176%,40.784314%,78.431373%);stop-opacity:1;"/>
<stop offset="1" style="stop-color:rgb(67.058824%,27.843137%,73.72549%);stop-opacity:1;"/>
</linearGradient>
<linearGradient id="linear2" gradientUnits="userSpaceOnUse" x1="254" y1="233.5" x2="254" y2="-168.66667" gradientTransform="matrix(0.031253,0,0,0.031253,0,6.719392)">
<stop offset="0" style="stop-color:rgb(93.72549%,60.392157%,60.392157%);stop-opacity:1;"/>
<stop offset="1" style="stop-color:rgb(100%,80.392157%,82.352941%);stop-opacity:1;"/>
</linearGradient>
<linearGradient id="linear3" gradientUnits="userSpaceOnUse" x1="960" y1="1695.1182" x2="960" y2="175.11813" gradientTransform="matrix(0.00826902,0,0,0.00826902,0,0)">
<stop offset="0" style="stop-color:rgb(92.54902%,25.098039%,47.843137%);stop-opacity:1;"/>
<stop offset="1" style="stop-color:rgb(94.117647%,38.431373%,57.254902%);stop-opacity:1;"/>
</linearGradient>
<linearGradient id="linear4" gradientUnits="userSpaceOnUse" x1="960" y1="1695.1182" x2="960" y2="175.11813" gradientTransform="matrix(0.00826902,0,0,0.00826902,0,0)">
<stop offset="0" style="stop-color:rgb(47.45098%,33.333333%,28.235294%);stop-opacity:1;"/>
<stop offset="1" style="stop-color:rgb(55.294118%,43.137255%,38.823529%);stop-opacity:1;"/>
</linearGradient>
</defs>
<g id="surface1">
<path style=" stroke:none;fill-rule:nonzero;fill:url(#radial0);" d="M 9.097656 14.015625 L 10.417969 14.015625 L 10.417969 13.355469 L 9.097656 13.355469 Z M 9.097656 14.015625 "/>
<path style=" stroke:none;fill-rule:nonzero;fill:url(#radial1);" d="M 6.78125 14.015625 L 5.457031 14.015625 L 5.457031 14.679688 L 6.78125 14.679688 Z M 6.78125 14.015625 "/>
<path style=" stroke:none;fill-rule:nonzero;fill:url(#radial2);" d="M 6.78125 14.015625 L 5.457031 14.015625 L 5.457031 13.355469 L 6.78125 13.355469 Z M 6.78125 14.015625 "/>
<path style=" stroke:none;fill-rule:nonzero;fill:url(#radial3);" d="M 9.097656 14.015625 L 10.417969 14.015625 L 10.417969 14.679688 L 9.097656 14.679688 Z M 9.097656 14.015625 "/>
<path style=" stroke:none;fill-rule:nonzero;fill:url(#linear0);" d="M 6.78125 13.851562 L 9.097656 13.851562 L 9.097656 14.679688 L 6.78125 14.679688 Z M 6.78125 13.851562 "/>
<path style="fill-rule:nonzero;fill:url(#linear1);stroke-width:3;stroke-linecap:round;stroke-linejoin:miter;stroke:rgb(20%,20%,20%);stroke-opacity:1;stroke-miterlimit:4;" d="M 253.975747 -168.629428 C 365.090136 -168.629428 455.081542 -78.638022 455.081542 32.476367 C 455.081542 143.465768 365.090136 233.457174 253.975747 233.457174 C 142.986345 233.457174 52.869951 143.465768 52.869951 32.476367 C 52.869951 -78.638022 142.986345 -168.629428 253.975747 -168.629428 Z M 253.975747 -168.629428 " transform="matrix(0.031253,0,0,0.031253,0,6.719392)"/>
<path style=" stroke:none;fill-rule:nonzero;fill:url(#linear2);" d="M 7.9375 4.09375 C 9.949219 4.09375 11.578125 5.722656 11.578125 7.734375 C 11.578125 9.742188 9.949219 11.371094 7.9375 11.371094 C 5.929688 11.371094 4.300781 9.742188 4.300781 7.734375 C 4.300781 5.722656 5.929688 4.09375 7.9375 4.09375 Z M 7.9375 4.09375 "/>
<path style=" stroke:none;fill-rule:nonzero;fill:rgb(100%,100%,100%);fill-opacity:0.392157;" d="M 7.9375 4.09375 C 5.921875 4.09375 4.300781 5.71875 4.300781 7.734375 C 4.300781 7.773438 4.300781 7.816406 4.300781 7.855469 C 4.367188 5.898438 5.964844 4.34375 7.9375 4.34375 C 9.914062 4.34375 11.507812 5.898438 11.574219 7.855469 C 11.574219 7.816406 11.578125 7.773438 11.578125 7.734375 C 11.578125 5.71875 9.953125 4.09375 7.9375 4.09375 Z M 7.9375 4.09375 "/>
<path style="fill:none;stroke-width:3;stroke-linecap:round;stroke-linejoin:miter;stroke:rgb(12.941176%,12.941176%,12.941176%);stroke-opacity:1;stroke-miterlimit:4;" d="M 253.975747 -84.012509 C 318.3446 -84.012509 370.464622 -31.892486 370.464622 32.476367 C 370.464622 96.720232 318.3446 148.840255 253.975747 148.840255 C 189.731882 148.840255 137.611859 96.720232 137.611859 32.476367 C 137.611859 -31.892486 189.731882 -84.012509 253.975747 -84.012509 Z M 253.975747 -84.012509 " transform="matrix(0.031253,0,0,0.031253,0,6.719392)"/>
<path style=" stroke:none;fill-rule:nonzero;fill:url(#linear3);" d="M 4.867188 10.058594 L 6.945312 12.972656 C 6.945312 12.972656 8.0625 13.457031 9.15625 13.898438 C 11.273438 13.488281 13.003906 12.019531 13.78125 10.058594 Z M 4.867188 10.058594 "/>
<path style=" stroke:none;fill-rule:nonzero;fill:rgb(100%,100%,100%);fill-opacity:0.392157;" d="M 4.867188 10.058594 L 5.023438 10.277344 L 13.691406 10.277344 C 13.722656 10.203125 13.753906 10.132812 13.78125 10.058594 Z M 4.867188 10.058594 "/>
<path style="fill:none;stroke-width:12.765609;stroke-linecap:butt;stroke-linejoin:miter;stroke:rgb(12.941176%,12.941176%,12.941176%);stroke-opacity:1;stroke-miterlimit:4;" d="M 588.605216 1216.419286 L 839.919802 1568.826582 C 839.919802 1568.826582 975.025012 1627.403666 1107.295847 1680.784396 C 1363.334392 1631.182833 1572.605749 1453.561997 1666.612521 1216.419286 Z M 588.605216 1216.419286 " transform="matrix(0.00826902,0,0,0.00826902,0,0)"/>
<path style=" stroke:none;fill-rule:nonzero;fill:url(#linear4);" d="M 1.941406 5.84375 C 1.753906 6.4375 1.652344 7.074219 1.652344 7.734375 C 1.652344 11.214844 4.457031 14.015625 7.9375 14.015625 C 9.480469 14.015625 10.890625 13.464844 11.984375 12.550781 C 11.457031 12.484375 11.035156 12.371094 9.828125 12.371094 C 9.152344 12.371094 7.367188 12.972656 6.703125 11.703125 C 6.1875 10.703125 5.246094 9.898438 4.476562 9.699219 C 3.820312 9.53125 3.640625 8.898438 3.589844 8.136719 C 3.527344 7.335938 2.882812 7.3125 2.46875 6.796875 C 2.195312 6.4375 2.125 6.054688 1.941406 5.84375 Z M 1.941406 5.84375 "/>
<path style=" stroke:none;fill-rule:nonzero;fill:rgb(0%,0%,0%);fill-opacity:0.196078;" d="M 7.9375 14.015625 C 4.457031 14.015625 1.652344 11.214844 1.652344 7.734375 C 1.652344 7.710938 1.652344 7.691406 1.652344 7.671875 C 1.6875 11.125 4.476562 13.894531 7.9375 13.894531 C 11.398438 13.894531 14.191406 11.125 14.222656 7.671875 C 14.222656 7.691406 14.222656 7.710938 14.222656 7.734375 C 14.222656 11.214844 11.417969 14.015625 7.9375 14.015625 Z M 7.9375 14.015625 "/>
<path style=" stroke:none;fill-rule:nonzero;fill:rgb(100%,100%,100%);fill-opacity:0.392157;" d="M 7.9375 1.449219 C 4.457031 1.449219 1.652344 4.25 1.652344 7.734375 C 1.652344 7.753906 1.652344 7.773438 1.652344 7.792969 C 1.6875 4.339844 4.476562 1.570312 7.9375 1.570312 C 11.398438 1.570312 14.191406 4.339844 14.222656 7.792969 C 14.222656 7.773438 14.222656 7.753906 14.222656 7.734375 C 14.222656 4.25 11.417969 1.449219 7.9375 1.449219 Z M 7.9375 1.449219 "/>
<path style=" stroke:none;fill-rule:nonzero;fill:rgb(100%,100%,100%);fill-opacity:0.392157;" d="M 1.941406 5.84375 C 1.753906 6.4375 1.652344 7.074219 1.652344 7.734375 C 1.652344 7.765625 1.652344 7.800781 1.65625 7.832031 C 1.664062 7.210938 1.765625 6.613281 1.941406 6.046875 C 2.125 6.257812 2.195312 6.640625 2.46875 7 C 2.882812 7.515625 3.527344 7.539062 3.589844 8.339844 C 3.640625 9.101562 3.820312 9.734375 4.476562 9.902344 C 5.246094 10.105469 6.1875 10.90625 6.703125 11.910156 C 7.367188 13.175781 9.152344 12.574219 9.828125 12.574219 C 10.867188 12.574219 11.324219 12.660156 11.765625 12.722656 C 11.839844 12.667969 11.910156 12.609375 11.984375 12.550781 C 11.457031 12.484375 11.035156 12.371094 9.828125 12.371094 C 9.152344 12.371094 7.367188 12.972656 6.703125 11.703125 C 6.1875 10.703125 5.246094 9.898438 4.476562 9.699219 C 3.820312 9.53125 3.640625 8.898438 3.589844 8.136719 C 3.527344 7.335938 2.882812 7.3125 2.46875 6.796875 C 2.195312 6.4375 2.125 6.054688 1.941406 5.84375 Z M 1.941406 5.84375 "/>
<path style=" stroke:none;fill-rule:nonzero;fill:rgb(12.941176%,12.941176%,12.941176%);fill-opacity:1;" d="M 7.9375 1.402344 C 4.429688 1.402344 1.605469 4.226562 1.605469 7.734375 C 1.605469 11.238281 4.429688 14.0625 7.9375 14.0625 C 11.445312 14.0625 14.269531 11.238281 14.269531 7.734375 C 14.269531 4.226562 11.445312 1.402344 7.9375 1.402344 Z M 7.9375 1.496094 C 11.394531 1.496094 14.175781 4.277344 14.175781 7.734375 C 14.175781 11.1875 11.394531 13.96875 7.9375 13.96875 C 4.480469 13.96875 1.699219 11.1875 1.699219 7.734375 C 1.699219 4.277344 4.480469 1.496094 7.9375 1.496094 Z M 7.9375 1.496094 "/>
<path style=" stroke:none;fill-rule:nonzero;fill:rgb(0%,0%,0%);fill-opacity:0.235294;" d="M 1.984375 5.582031 C 1.878906 5.921875 1.796875 6.269531 1.75 6.628906 C 1.796875 6.363281 1.859375 6.097656 1.941406 5.84375 C 2.125 6.054688 2.195312 6.4375 2.46875 6.796875 C 2.882812 7.3125 3.527344 7.335938 3.589844 8.136719 C 3.640625 8.898438 3.820312 9.53125 4.476562 9.699219 C 5.246094 9.898438 6.1875 10.703125 6.703125 11.703125 C 7.367188 12.972656 9.152344 12.371094 9.828125 12.371094 C 11.035156 12.371094 11.457031 12.484375 11.984375 12.550781 C 11.976562 12.554688 11.972656 12.558594 11.96875 12.5625 C 12.058594 12.492188 12.148438 12.421875 12.238281 12.351562 C 11.699219 12.285156 11.269531 12.167969 10.039062 12.167969 C 9.347656 12.167969 7.527344 12.777344 6.847656 11.496094 C 6.320312 10.484375 5.359375 9.675781 4.574219 9.472656 C 3.90625 9.304688 3.722656 8.664062 3.667969 7.898438 C 3.601562 7.089844 2.945312 7.066406 2.523438 6.542969 C 2.246094 6.183594 2.171875 5.796875 1.984375 5.582031 Z M 1.984375 5.582031 "/>
<path style="fill:none;stroke-width:12.765609;stroke-linecap:butt;stroke-linejoin:miter;stroke:rgb(12.941176%,12.941176%,12.941176%);stroke-opacity:1;stroke-miterlimit:4;" d="M 234.780732 706.704176 C 212.105732 778.508343 199.82344 855.508865 199.82344 935.343762 C 199.82344 1356.248455 539.003653 1694.956271 959.908345 1694.956271 C 1146.504702 1694.956271 1317.0396 1628.348458 1449.310435 1517.807832 C 1385.536997 1509.777102 1334.518246 1496.077623 1188.547932 1496.077623 C 1106.823451 1496.077623 890.938553 1568.826582 810.63126 1415.297934 C 748.275009 1294.3646 634.427612 1197.051057 541.365632 1172.958869 C 462.003131 1152.645848 440.272922 1076.117722 434.131776 984.000533 C 426.573443 887.159386 348.628129 884.325011 298.55417 821.96876 C 265.486462 778.508343 256.983337 732.213551 234.780732 706.704176 Z M 234.780732 706.704176 " transform="matrix(0.00826902,0,0,0.00826902,0,0)"/>
<path style=" stroke:none;fill-rule:nonzero;fill:rgb(0%,0%,0%);fill-opacity:0.235294;" d="M 4.992188 9.875 C 5.046875 9.949219 5.105469 10.023438 5.164062 10.09375 L 10.710938 10.09375 C 10.769531 10.023438 10.828125 9.949219 10.882812 9.875 Z M 4.992188 9.875 "/>
</g>
</svg>
